X: 1
T: Jacks On The Mountain, The
M: 6/8
L: 1/8
R: jig
K: Dmaj
|:dBA FED|B,A,B, D2 A,|B,EE EDE|FBB ABc|
dBA FED|B,A,B, D2 A,|B,EE FEF|1 AFD D2 c:|2 AFD D2 E||
|:DFA cde|dBA B2 B|AFE EFE|
[1 DB,A, A,2 E|DFA cde|dBA B2 B|AFE EFE| AFD D2 E:|
[2 DB,A, A,2 G,|A,DD DEF|AFA d2 B|AFE EFE|AFD D2 c||
